static/assets/img/icons/theme/navigation/down-left.svg

<svg height="24" viewBox="0 0 24 24" width="24" xmlns="http://www.w3.org/2000/svg"><g fill="none" fill-rule="evenodd"><path d="m0 0h24v24h-24z" opacity="0"/><g fill="#000"><rect height="14" opacity=".3" rx="1" transform="matrix(-.70710678 -.70710678 .70710678 -.70710678 12.499999 29.470563)" width="2" x="11.353553" y="5.146447"/><path d="m15.8890873 16.0961941c.5522847 0 1 .4477152 1 1 0 .5522847-.4477153 1-1 1h-8.48528138c-.53539146 0-.97580024-.4216767-.99905616-.9565628l-.35355339-8.13172798c-.02398971-.55176348.40385546-1.01850367.95561894-1.04249338.55176348-.02398972 1.01850366.40385545 1.04249338.95561893l.3119637 7.17516523z" fill-rule="nonzero"/></g></g></svg>

<svg width="24px" height="24px" viewBox="0 0 24 24" version="1.1" xmlns="http://www.w3.org/2000/svg" xmlns:xlink="http://www.w3.org/1999/xlink">
    <title>Icon For Down-left</title>
    <g stroke="none" stroke-width="1" fill="none" fill-rule="evenodd">
        <polygon points="0 0 24 0 24 24 0 24" opacity="0"></polygon>
        <rect fill="#000000" opacity="0.3" transform="translate(12.353553, 12.146447) rotate(-135.000000) translate(-12.353553, -12.146447) " x="11.3535534" y="5.14644661" width="2" height="14" rx="1"></rect>
        <path d="M15.8890873,16.0961941 C16.441372,16.0961941 16.8890873,16.5439093 16.8890873,17.0961941 C16.8890873,17.6484788 16.441372,18.0961941 15.8890873,18.0961941 L7.40380592,18.0961941 C6.86841446,18.0961941 6.42800568,17.6745174 6.40474976,17.1396313 L6.05119637,9.00790332 C6.02720666,8.45613984 6.45505183,7.98939965 7.00681531,7.96540994 C7.55857879,7.94142022 8.02531897,8.36926539 8.04930869,8.92102887 L8.36127239,16.0961941 L15.8890873,16.0961941 Z" fill="#000000" fill-rule="nonzero"></path>
    </g>
</svg>
